X:207
T:Pedalling Patterns
R:barndance, hornpipe
C:Charlie Lennon
N:part of his Island Wedding Suite.
S:Jennikel Andersson (Nov 30, 2001) who got it from Ois=EDn McDiarmida
Z:Jeff Lindqvist <jeff_lindqvist@SPRAY.SE> irtrad-l 2001-11-30
M:C|
L:1/8
K:Edor
B~E3 FAdc|BEGB e^def|{a}g2ge f2dc|BcdB efdc|
B~E3 FAdc|BEGB e^def|{a}g2ge f2dc|BcdB e2dc|
B~E3 FAdc|BEGB e^def|{a}g2ge f2dc|BcdB efdc|
B~E3 FAdc|BEGB e^def|{a}g2ge f2dc|BcdB efaf||
gB{d}BA G2b2|a~f3 dAFD|EB{d}BA GBef|gbaf geef|
geBe gece|fdcd AGFD|EFGA Bdef|gbaf geef|
gB{d}BA GBbf|a~f3 dAFD|EB{d}BA GBef|gbaf geef|
geBe gece|fdcd AGFD|EFGA Bdef|gbaf gedc||
